src/topics/icons/vault.svg

<svg height="242" preserveAspectRatio="xMidYMid" viewBox="0 0 256 242" width="256" xmlns="http://www.w3.org/2000/svg"><path d="m0 0h256l-128.025 241.508z"/><path d="m158.988 64.196c0 3.998-3.241 7.24-7.24 7.24-3.998 0-7.24-3.242-7.24-7.24 0-3.999 3.242-7.24 7.24-7.24 3.999 0 7.24 3.241 7.24 7.24" fill="#00adcc"/><path d="m158.988 84.082c0 3.999-3.241 7.24-7.24 7.24-3.998 0-7.24-3.241-7.24-7.24s3.242-7.24 7.24-7.24c3.999 0 7.24 3.241 7.24 7.24" fill="#005766"/><path d="m158.988 103.872c0 3.998-3.241 7.24-7.24 7.24-3.998 0-7.24-3.242-7.24-7.24 0-3.999 3.242-7.24 7.24-7.24 3.999 0 7.24 3.241 7.24 7.24" fill="#00d8fe"/><path d="m115.548 103.872c0 3.998-3.242 7.24-7.24 7.24-3.999 0-7.241-3.242-7.241-7.24 0-3.999 3.242-7.24 7.241-7.24 3.998 0 7.24 3.241 7.24 7.24" fill="#008da6"/><path d="m115.548 84.082c0 3.999-3.242 7.24-7.24 7.24-3.999 0-7.241-3.241-7.241-7.24s3.242-7.24 7.241-7.24c3.998 0 7.24 3.241 7.24 7.24" fill="#00d8fe"/><path d="m115.548 64.196c0 3.998-3.242 7.24-7.24 7.24-3.999 0-7.241-3.242-7.241-7.24 0-3.999 3.242-7.24 7.241-7.24 3.998 0 7.24 3.241 7.24 7.24" fill="#00d8fe"/><path d="m137.268 64.196c0 3.998-3.241 7.24-7.24 7.24s-7.24-3.242-7.24-7.24c0-3.999 3.241-7.24 7.24-7.24s7.24 3.241 7.24 7.24" fill="#005766"/><path d="m137.268 84.082c0 3.999-3.241 7.24-7.24 7.24s-7.24-3.241-7.24-7.24 3.241-7.24 7.24-7.24 7.24 3.241 7.24 7.24" fill="#00c3e6"/><path d="m137.268 103.872c0 3.998-3.241 7.24-7.24 7.24s-7.24-3.242-7.24-7.24c0-3.999 3.241-7.24 7.24-7.24s7.24 3.241 7.24 7.24" fill="#008da6"/><path d="m137.268 123.951c0 3.999-3.241 7.24-7.24 7.24s-7.24-3.241-7.24-7.24 3.241-7.24 7.24-7.24 7.24 3.241 7.24 7.24" fill="#00d8fe"/></svg>

<?xml version="1.0" encoding="UTF-8" standalone="no"?>
<svg width="256px" height="242px" viewBox="0 0 256 242" version="1.1" xmlns="http://www.w3.org/2000/svg" xmlns:xlink="http://www.w3.org/1999/xlink" preserveAspectRatio="xMidYMid">
	<g>
		<path d="M0,0 L256,0 L127.975,241.508 L0,0" fill="#000000"></path>
		<path d="M158.988,64.196 C158.988,68.194 155.747,71.436 151.748,71.436 C147.75,71.436 144.508,68.194 144.508,64.196 C144.508,60.197 147.75,56.956 151.748,56.956 C155.747,56.956 158.988,60.197 158.988,64.196" fill="#00ADCC"></path>
		<path d="M158.988,84.082 C158.988,88.081 155.747,91.322 151.748,91.322 C147.75,91.322 144.508,88.081 144.508,84.082 C144.508,80.083 147.75,76.842 151.748,76.842 C155.747,76.842 158.988,80.083 158.988,84.082" fill="#005766"></path>
		<path d="M158.988,103.872 C158.988,107.87 155.747,111.112 151.748,111.112 C147.75,111.112 144.508,107.87 144.508,103.872 C144.508,99.873 147.75,96.632 151.748,96.632 C155.747,96.632 158.988,99.873 158.988,103.872" fill="#00D8FE"></path>
		<path d="M115.548,103.872 C115.548,107.87 112.306,111.112 108.308,111.112 C104.309,111.112 101.067,107.87 101.067,103.872 C101.067,99.873 104.309,96.632 108.308,96.632 C112.306,96.632 115.548,99.873 115.548,103.872" fill="#008DA6"></path>
		<path d="M115.548,84.082 C115.548,88.081 112.306,91.322 108.308,91.322 C104.309,91.322 101.067,88.081 101.067,84.082 C101.067,80.083 104.309,76.842 108.308,76.842 C112.306,76.842 115.548,80.083 115.548,84.082" fill="#00D8FE"></path>
		<path d="M115.548,64.196 C115.548,68.194 112.306,71.436 108.308,71.436 C104.309,71.436 101.067,68.194 101.067,64.196 C101.067,60.197 104.309,56.956 108.308,56.956 C112.306,56.956 115.548,60.197 115.548,64.196" fill="#00D8FE"></path>
		<path d="M137.268,64.196 C137.268,68.194 134.027,71.436 130.028,71.436 C126.029,71.436 122.788,68.194 122.788,64.196 C122.788,60.197 126.029,56.956 130.028,56.956 C134.027,56.956 137.268,60.197 137.268,64.196" fill="#005766"></path>
		<path d="M137.268,84.082 C137.268,88.081 134.027,91.322 130.028,91.322 C126.029,91.322 122.788,88.081 122.788,84.082 C122.788,80.083 126.029,76.842 130.028,76.842 C134.027,76.842 137.268,80.083 137.268,84.082" fill="#00C3E6"></path>
		<path d="M137.268,103.872 C137.268,107.87 134.027,111.112 130.028,111.112 C126.029,111.112 122.788,107.87 122.788,103.872 C122.788,99.873 126.029,96.632 130.028,96.632 C134.027,96.632 137.268,99.873 137.268,103.872" fill="#008DA6"></path>
		<path d="M137.268,123.951 C137.268,127.95 134.027,131.191 130.028,131.191 C126.029,131.191 122.788,127.95 122.788,123.951 C122.788,119.952 126.029,116.711 130.028,116.711 C134.027,116.711 137.268,119.952 137.268,123.951" fill="#00D8FE"></path>
	</g>
</svg>
